src/images/settings_icon.svg

<svg width="25" height="25" viewBox="0 0 25 25" fill="none" xmlns="http://www.w3.org/2000/svg">
<g clip-path="url(#clip0_20_674)">
<path d="M22.6985 9.41406H22.1678C21.9954 8.87451 21.7778 8.35039 21.5172 7.84683L21.8931 7.47095C22.8045 6.56055 22.7801 5.10156 21.8934 4.21582L20.7845 3.10693C19.8993 2.22056 18.44 2.19487 17.5293 3.10659L17.1532 3.48276C16.6496 3.22222 16.1254 3.00464 15.5859 2.83223V2.30142C15.5859 1.03242 14.5535 0 13.2845 0H11.7155C10.4465 0 9.41406 1.03242 9.41406 2.30142V2.83223C8.87456 3.00459 8.35039 3.22217 7.84683 3.48276L7.471 3.10693C6.56216 2.19702 5.10293 2.21836 4.21592 3.10664L3.10688 4.21558C2.22056 5.10093 2.19492 6.56001 3.10659 7.4707L3.48276 7.84687C3.22217 8.35044 3.00464 8.87451 2.83223 9.41411H2.30146C1.03247 9.41406 0 10.4465 0 11.7155V13.2845C0 14.5535 1.03247 15.5859 2.30146 15.5859H2.83223C3.00464 16.1255 3.22217 16.6496 3.48276 17.1532L3.10688 17.5291C2.19551 18.4395 2.21992 19.8984 3.10659 20.7842L4.21553 21.8931C5.10073 22.7794 6.56001 22.8051 7.47065 21.8934L7.84683 21.5172C8.35039 21.7778 8.87456 21.9954 9.41406 22.1678V22.6986C9.41406 23.9676 10.4465 25 11.7155 25H13.2845C14.5535 25 15.586 23.9676 15.586 22.6986V22.1678C16.1255 21.9954 16.6497 21.7778 17.1532 21.5172L17.5291 21.8931C18.4379 22.803 19.8971 22.7816 20.7841 21.8934L21.8932 20.7844C22.7795 19.899 22.8051 18.4399 21.8935 17.5292L21.5173 17.1531C21.7779 16.6495 21.9954 16.1254 22.1678 15.5858H22.6986C23.9676 15.5858 25 14.5534 25 13.2844V11.7154C25 10.4465 23.9675 9.41406 22.6985 9.41406ZM12.5 17.9395C9.50064 17.9395 7.06055 15.4993 7.06055 12.5C7.06055 9.50068 9.50064 7.06055 12.5 7.06055C15.4994 7.06055 17.9395 9.50068 17.9395 12.5C17.9395 15.4993 15.4994 17.9395 12.5 17.9395Z" fill="#b1b1b1"/>
</g>
<defs>
<clipPath id="clip0_20_674">
<rect width="25" height="25" fill="white"/>
</clipPath>
</defs>
</svg>

<svg xmlns="http://www.w3.org/2000/svg" width="25" height="25" fill="none"><g clip-path="url(#a)"><path fill="#b1b1b1" d="M22.698 9.414h-.53c-.173-.54-.39-1.064-.65-1.567l.375-.376c.912-.91.887-2.37 0-3.255l-1.108-1.11a2.301 2.301 0 0 0-3.256 0l-.376.377a10.105 10.105 0 0 0-1.567-.65V2.3A2.304 2.304 0 0 0 13.284 0h-1.569a2.304 2.304 0 0 0-2.3 2.301v.531c-.54.173-1.065.39-1.568.65l-.376-.375a2.301 2.301 0 0 0-3.255 0l-1.11 1.109a2.301 2.301 0 0 0 0 3.255l.377.376c-.26.503-.478 1.028-.65 1.567H2.3A2.304 2.304 0 0 0 0 11.716v1.569a2.304 2.304 0 0 0 2.301 2.3h.531c.173.54.39 1.065.65 1.568l-.375.376a2.301 2.301 0 0 0 0 3.255l1.109 1.11a2.301 2.301 0 0 0 3.255 0l.376-.377c.503.26 1.028.478 1.567.65v.532A2.304 2.304 0 0 0 11.716 25h1.569a2.304 2.304 0 0 0 2.301-2.301v-.531c.54-.173 1.064-.39 1.567-.65l.376.375c.909.91 2.368.889 3.255 0l1.11-1.109a2.302 2.302 0 0 0 0-3.255l-.377-.376c.26-.503.478-1.028.65-1.567h.532A2.304 2.304 0 0 0 25 13.284v-1.569a2.304 2.304 0 0 0-2.302-2.3ZM12.5 17.94c-3 0-5.44-2.44-5.44-5.439 0-3 2.44-5.44 5.44-5.44 3 0 5.44 2.44 5.44 5.44 0 3-2.44 5.44-5.44 5.44Z"/></g><defs><clipPath id="a"><path fill="#fff" d="M0 0h25v25H0z"/></clipPath></defs></svg>
